X:164
T:Bring on the Rain
C:Nicolas Williams
S:Composium 2005
Z:robin.beech@mcgill.ca
R:jig
M:6/8
L:1/8
K:Ador
eAA eAA | fAg fed | eAA eAA | d2B BAG |
E2A AGA | cAA dAe | dcB ABG |1 A3 AB/c/d :|2 A3 A3 |: 
c2c cde | dBG GBd | eff fga | fed e3 |
c2c cde | dBG GAB | cBA cBA | B2B BAG |
c2c cde | dBG GBd | eff fga | fed e3 |
edc edc | dBG GAB | cBA BAG | A2A A3 |]
